T: Dominic McGowan
M: 6/8
L: 1/8
K: Bmin
Bcd c2A|Bce f3|fed e2 f|fed cBA|
Bcd c2A|Bce f3|fed e2 f|dcA B3:|
f3fed|e3ede|f2B Bcd|e2d cBA|
f3fed|e3ede|f2B Bcd|cBA B3|
f3fed|e3ede|f2B Bcd|e2d cBA|
Bcd c2A|Bce f3|fed e2 f|dcA B3:|
